X:206
T:Eki Dumah! (Kay, Kay, Kay)
M:C|
L:1/8
Q:1/4=150
K:F
F3G  Ac3 |F3F FF3 |F3G  Ac3 |F3F FF3 |
ffdd ccAA|G3F FFF2|ffdd ccAA|G3F FFF2|
ffdd ccAA|G3F FFF2|AAAA BBGE|F3F FFF2|
F3G  Ac3 |F3F FF3 |F3G  Ac3 |F3F FF3 ||
